Sources/FrostedUI/Resources/Icons.xcassets/inbox24.imageset/inbox-24.svg

<svg width="24" height="24" viewBox="0 0 24 24" fill="none" xmlns="http://www.w3.org/2000/svg" data-fui-icon="true">
  <g clip-path="url(#clip0_3954_8)">
    <path
      d="M19.542 0.25C21.8658 0.25 23.75 2.13423 23.75 4.45801V19.542C23.75 21.8658 21.8658 23.75 19.542 23.75H4.45801C2.13423 23.75 0.25 21.8658 0.25 19.542V4.45801C0.25 2.13423 2.13423 0.25 4.45801 0.25H19.542ZM1.75 19.542C1.75 21.0373 2.96266 22.25 4.45801 22.25H19.542C21.0373 22.25 22.25 21.0373 22.25 19.542V14.9502H16.5234C16.1466 17.0423 14.2251 18.6162 12 18.6162C9.77493 18.6162 7.85341 17.0423 7.47656 14.9502H1.75V19.542ZM4.45801 1.75C2.96266 1.75 1.75 2.96266 1.75 4.45801V13.4502H8.15918C8.57326 13.4504 8.90918 13.7861 8.90918 14.2002C8.90929 15.7611 10.2778 17.1162 12 17.1162C13.7222 17.1162 15.0907 15.7611 15.0908 14.2002C15.0908 13.7861 15.4267 13.4504 15.8408 13.4502H22.25V4.45801C22.25 2.96266 21.0373 1.75 19.542 1.75H4.45801Z"
      fill="currentColor"
    />
  </g>
  <defs>
    <clipPath id="clip0_3954_8"><path fill="currentColor" d="M0 0H24V24H0z" /></clipPath>
  </defs>
</svg>

<svg xmlns="http://www.w3.org/2000/svg" width="24" height="24" fill="none" data-fui-icon="true" viewBox="0 0 24 24"><g clip-path="url(#a)"><path fill="currentColor" d="M19.542.25a4.21 4.21 0 0 1 4.208 4.208v15.084a4.21 4.21 0 0 1-4.208 4.208H4.458A4.21 4.21 0 0 1 .25 19.542V4.458A4.21 4.21 0 0 1 4.458.25zM1.75 19.542a2.71 2.71 0 0 0 2.708 2.708h15.084a2.71 2.71 0 0 0 2.708-2.708V14.95h-5.727c-.376 2.092-2.298 3.666-4.523 3.666s-4.147-1.574-4.523-3.666H1.75zM4.458 1.75A2.71 2.71 0 0 0 1.75 4.458v8.992h6.41a.75.75 0 0 1 .75.75c0 1.561 1.368 2.916 3.09 2.916s3.09-1.355 3.09-2.916a.75.75 0 0 1 .75-.75h6.41V4.458a2.71 2.71 0 0 0-2.708-2.708z"/></g><defs><clipPath id="a"><path fill="currentColor" d="M0 0h24v24H0z"/></clipPath></defs></svg>
